X:20
T:Lichtmann 20
C:M. Charpentier
M:2/2
L:1/8
Q:"Allegro moderato" 1/2=66
K:D
!f!A,2"_stately"|D2DEF2D2|A4F3F|G2AG FG A2|(ED)EF E2A,2|D2DEF2D2|
A4F3F|(GA)FGE3D|D6AG||F2D2G2GF|E3DC2F2|E2DEC2F2|D3CB,2B2|
B2A2A2G2|F3ED2A2|A3BB3A|A6A,2||D2DE FE D2|A>B (AB)AG F3 F|
B2A2A2G2|F3ED2A2|A3BB3A|A6A,2||D2DE FE D2|A>B (A/B/)A/G/ F3F|
G2AG FGAB|EDEF E2 (A/G/)F/E/|D2DEF2(D/E/)F/G/|A4F3F|G(A/G/) F(G/F/)E3D|D6|]

